icons/lock-17.svg

<svg width="16" height="17" viewBox="0 0 16 17" fill="none" xmlns="http://www.w3.org/2000/svg">
<path fill-rule="evenodd" clip-rule="evenodd" d="M4.79995 5.36638V6.96638H4.59995C4.22865 6.96638 3.87255 7.11388 3.61 7.37643C3.34745 7.63898 3.19995 7.99508 3.19995 8.36638V12.7664C3.19995 13.5392 3.82715 14.1664 4.59995 14.1664H11.4C11.7712 14.1664 12.1273 14.0189 12.3899 13.7563C12.6524 13.4937 12.8 13.1377 12.8 12.7664V8.36638C12.8 7.99508 12.6524 7.63898 12.3899 7.37643C12.1273 7.11388 11.7712 6.96638 11.4 6.96638H11.2V5.36638C11.2 4.51769 10.8628 3.70376 10.2627 3.10364C9.66259 2.50352 8.84865 2.16638 7.99995 2.16638C7.15126 2.16638 6.33733 2.50352 5.73721 3.10364C5.1371 3.70376 4.79995 4.51769 4.79995 5.36638ZM9.99995 6.96638V5.36638C9.99995 4.83595 9.78923 4.32724 9.41417 3.95217C9.03909 3.57709 8.53038 3.36638 7.99995 3.36638C7.46952 3.36638 6.96081 3.57709 6.58574 3.95217C6.21066 4.32724 5.99995 4.83595 5.99995 5.36638V6.96638H9.99995ZM11.2 8.16638H11.4C11.453 8.16638 11.5039 8.18745 11.5414 8.22496C11.5789 8.26247 11.6 8.31334 11.6 8.36638V12.7664C11.6 12.8194 11.5789 12.8703 11.5414 12.9078C11.5039 12.9453 11.453 12.9664 11.4 12.9664H4.59995C4.54691 12.9664 4.49604 12.9453 4.45853 12.9078C4.42102 12.8703 4.39995 12.8194 4.39995 12.7664V8.36638C4.39995 8.31334 4.42102 8.26247 4.45853 8.22496C4.49604 8.18745 4.54691 8.16638 4.59995 8.16638H11.2Z" fill="#272431"/>
</svg>

<svg xmlns="http://www.w3.org/2000/svg" width="16" height="17" viewBox="0 0 16 17"><path fill-rule="evenodd" d="M4.8 5.366v1.6h-.2a1.4 1.4 0 00-1.4 1.4v4.4a1.4 1.4 0 001.4 1.4h6.8a1.4 1.4 0 001.4-1.4v-4.4a1.4 1.4 0 00-1.4-1.4h-.2v-1.6a3.2 3.2 0 00-6.4 0zm5.2 1.6v-1.6a2 2 0 00-4 0v1.6h4zm1.2 1.2h.2a.2.2 0 01.2.2v4.4a.2.2 0 01-.2.2H4.6a.2.2 0 01-.2-.2v-4.4a.2.2 0 01.2-.2h6.6z"/></svg>
